!!!OTL: Nian hongjun
!!!ARE: Asia, China,ÿHubei Shishao
!! I, 423
!!!SCT: C2165
!!!YEM: Copyright 1995, estate of Helmut Schaffrath.
**kern
*ICvox
*Ivox
*M2/4
*k[f#c#g#]
*A:
{16f#
16a
16b
16cc#
4a
=1
8.cc#
16ee
4a
=2
8f#
4a
8e
=3
16f#
16a
16c#
16e
4f#}
=4
{8cc#
16cc#
16b
8cc#
16ee
16cc#
=5
8b
16cc#
16b
4a
=6
8f#
4a
16b
16a
=7
2f#}
=8
{8cc#
16f#
16a
4cc#
=9
8.f#
16a
8c#
8e
=10
16f#
16a
4c#
8e
=11
8f#
8cc#
8a
8a}
=12
{8cc#
16cc#
16b
8cc#
8ee
=13
16cc#
16b
16cc#
16b
4a
=14
8f#
4a
16b
16a
=15
2f#}
==
!!!AGN: Xiaodiao, Heshadiao
!!!ONB: ESAC (Essen Associative Code) Database: SENGANSU
!!!AMT: simple duple
!!!AIN: vox
!!!EED: Helmut Schaffrath
!!!EEV: 1.0
*-
